app/assets/images/patreon-logo.svg

<svg fill="none" height="561" viewBox="0 0 3092 561" width="3092" xmlns="http://www.w3.org/2000/svg"><path d="m4 71.8489c0-21.6893 16.0564-36.438 41.2259-36.438h120.4231c109.14 0 183.347 60.0794 183.347 148.3551 0 86.757-73.556 151.174-183.347 151.174h-16.707c-42.094 0-63.7921 21.689-63.7921 56.609v98.903c0 27.98-16.0564 45.548-40.5749 45.548-24.5186 0-40.575-17.568-40.575-45.548zm81.1499 125.3641c0 44.029 22.3491 65.068 65.0931 65.068h10.415c60.104 0 104.367-24.509 104.367-78.298 0-53.79-44.046-78.299-104.367-78.299h-10.198c-42.744 0-65.0931 21.039-65.0931 65.068v26.461zm264.0631 300.18c0 22.991 16.056 38.39 40.575 38.39 16.056 0 30.811-10.411 39.273-32.1l14.754-39.258c11.934-31.449 32.981-46.198 55.981-46.198h133.008c22.999 0 44.046 14.749 55.98 46.198l14.755 39.258c8.462 21.689 22.999 32.1 39.273 32.1 24.518 0 40.575-15.399 40.575-38.39 0-6.29-1.302-14.098-4.123-21.689l-158.828-412.9646c-9.764-25.1596-32.113-37.7394-53.811-37.7394s-44.046 12.5798-53.81 37.7394l-158.829 412.9646c-3.471 7.808-4.773 15.399-4.773 21.689zm154.705-187.612c0-7.592 2.17-14.749 5.642-25.16l30.16-83.287c5.641-16.05 15.405-23.858 26.688-23.858s21.047 7.591 26.689 23.858l30.16 83.287c3.471 10.411 5.641 17.568 5.641 25.16 0 21.038-11.934 35.787-43.396 35.787h-37.754c-31.896 0-43.83-14.749-43.83-35.787zm252.78-236.4138c0-22.34 16.057-37.7394 42.094-37.7394h321.998c25.82 0 42.09 15.3994 42.09 37.7394 0 22.3399-16.05 37.7398-42.09 37.7398h-53.81c-42.75 0-65.75 21.689-65.75 71.357v307.338c0 28.63-16.053 46.198-41.223 46.198-25.169 0-41.226-17.568-41.226-46.198v-307.338c0-49.668-22.999-71.357-65.744-71.357h-53.811c-26.471 0-42.528-15.3999-42.528-37.7398zm481.692 417.0848c0 27.98 16.06 45.548 40.58 45.548 24.51 0 40.57-17.568 40.57-45.548v-111.266c0-31.449 18.23-44.897 40.58-44.897h5.64c14.75 0 29.51 9.11 38.4 22.34l106.32 156.163c9.77 14.749 22.35 22.991 38.41 22.991 21.04 0 37.75-17.568 37.75-38.39 0-8.459-2.82-17.568-9.11-26.678l-70.74-99.337c-8.46-11.929-11.93-21.689-11.93-30.148 0-17.568 15.4-30.148 33.63-43.379 32.98-24.508 68.57-56.609 68.57-118.206 0-86.1068-67.27-144.2341-177.93-144.2341h-140.82c-25.16 0-40.57 14.7487-40.57 36.438v418.6031zm81.15-299.529v-21.038c0-45.548 23.87-64.418 60.1-64.418h34.94c60.1 0 98.72 22.34 98.72 74.178 0 51.837-40.57 75.479-100.89 75.479h-32.98c-36.02.216-59.89-18.653-59.89-64.201zm381.67 298.011v-417.0851c0-21.6893 15.4-36.438 40.57-36.438h264.71c25.17 0 40.58 14.7487 40.58 36.438s-15.41 36.4381-40.58 36.4381h-167.29c-32.98 0-56.63 19.52-56.63 56.609v15.399c0 37.089 23.87 56.61 56.63 56.61h129.54c25.17 0 40.57 14.748 40.57 36.438 0 21.689-15.4 36.438-40.57 36.438h-124.55c-32.98 0-61.62 20.388-61.62 61.597v19.521c0 41.209 28.64 61.597 61.62 61.597h162.52c25.17 0 40.58 14.749 40.58 36.438s-15.41 36.438-40.58 36.438h-264.71c-25.39 0-40.79-14.749-40.79-36.438zm394.03-208.434c0-151.174 113.48-255.5 246.49-255.5 133 0 246.48 104.326 246.48 255.5s-113.48 255.5-246.48 255.5c-133.01 0-246.49-104.326-246.49-255.5zm92.43 0c0 106.278 62.93 174.165 154.06 174.165 90.91 0 154.05-67.887 154.05-174.165 0-107.145-62.92-174.165-154.05-174.165-90.92-.217-154.06 67.02-154.06 174.165zm497.75 209.952c0 27.98 16.06 45.548 40.58 45.548 24.51 0 40.57-17.568 40.57-45.548v-214.073c0-25.81 15.41-38.39 31.46-38.39 12.59 0 23 6.941 30.81 19.52l134.31 224.702c18.23 30.798 34.94 53.789 69.22 53.789 32.98 0 56.63-23.858 56.63-62.248v-403.2045c0-27.9792-16.06-45.5475-40.58-45.5475-24.51 0-40.57 17.5683-40.57 45.5475v214.0735c0 25.81-15.41 38.39-31.46 38.39-12.59 0-23.22-6.941-30.81-19.52l-134.31-224.7015c-18.23-30.7988-34.94-53.7895-69.22-53.7895-32.98 0-56.63 23.8583-56.63 62.2483z" fill="#000"/></svg>

<svg width="3092" height="561" viewBox="0 0 3092 561" fill="none" xmlns="http://www.w3.org/2000/svg">
<path d="M4 71.8489C4 50.1596 20.0564 35.4109 45.2259 35.4109H165.649C274.789 35.4109 348.996 95.4903 348.996 183.766C348.996 270.523 275.44 334.94 165.649 334.94H148.942C106.848 334.94 85.1499 356.629 85.1499 391.549V490.452C85.1499 518.432 69.0935 536 44.575 536C20.0564 536 4 518.432 4 490.452V71.8489ZM85.1499 197.213C85.1499 241.242 107.499 262.281 150.243 262.281H160.658C220.762 262.281 265.025 237.772 265.025 183.983C265.025 130.193 220.979 105.684 160.658 105.684H150.46C107.716 105.684 85.3669 126.723 85.3669 170.752V197.213H85.1499ZM349.213 497.393C349.213 520.384 365.269 535.783 389.788 535.783C405.844 535.783 420.599 525.372 429.061 503.683L443.815 464.425C455.749 432.976 476.796 418.227 499.796 418.227H632.804C655.803 418.227 676.85 432.976 688.784 464.425L703.539 503.683C712.001 525.372 726.538 535.783 742.812 535.783C767.33 535.783 783.387 520.384 783.387 497.393C783.387 491.103 782.085 483.295 779.264 475.704L620.436 62.7394C610.672 37.5798 588.323 25 566.625 25C544.927 25 522.579 37.5798 512.815 62.7394L353.986 475.704C350.515 483.512 349.213 491.103 349.213 497.393ZM503.918 309.781C503.918 302.189 506.088 295.032 509.56 284.621L539.72 201.334C545.361 185.284 555.125 177.476 566.408 177.476C577.691 177.476 587.455 185.067 593.097 201.334L623.257 284.621C626.728 295.032 628.898 302.189 628.898 309.781C628.898 330.819 616.964 345.568 585.502 345.568H547.748C515.852 345.568 503.918 330.819 503.918 309.781ZM756.698 73.3672C756.698 51.0272 772.755 35.6278 798.792 35.6278H1120.79C1146.61 35.6278 1162.88 51.0272 1162.88 73.3672C1162.88 95.7071 1146.83 111.107 1120.79 111.107H1066.98C1024.23 111.107 1001.23 132.796 1001.23 182.464V489.802C1001.23 518.432 985.177 536 960.007 536C934.838 536 918.781 518.432 918.781 489.802V182.464C918.781 132.796 895.782 111.107 853.037 111.107H799.226C772.755 111.107 756.698 95.7071 756.698 73.3672ZM1238.39 490.452C1238.39 518.432 1254.45 536 1278.97 536C1303.48 536 1319.54 518.432 1319.54 490.452V379.186C1319.54 347.737 1337.77 334.289 1360.12 334.289H1365.76C1380.51 334.289 1395.27 343.399 1404.16 356.629L1510.48 512.792C1520.25 527.541 1532.83 535.783 1548.89 535.783C1569.93 535.783 1586.64 518.215 1586.64 497.393C1586.64 488.934 1583.82 479.825 1577.53 470.715L1506.79 371.378C1498.33 359.449 1494.86 349.689 1494.86 341.23C1494.86 323.662 1510.26 311.082 1528.49 297.851C1561.47 273.343 1597.06 241.242 1597.06 179.645C1597.06 93.5382 1529.79 35.4109 1419.13 35.4109H1278.31C1253.15 35.4109 1237.74 50.1596 1237.74 71.8489V490.452H1238.39ZM1319.54 190.923V169.885C1319.54 124.337 1343.41 105.467 1379.64 105.467H1414.58C1474.68 105.467 1513.3 127.807 1513.3 179.645C1513.3 231.482 1472.73 255.124 1412.41 255.124H1379.43C1343.41 255.34 1319.54 236.471 1319.54 190.923ZM1701.21 488.934V71.8489C1701.21 50.1596 1716.61 35.4109 1741.78 35.4109H2006.49C2031.66 35.4109 2047.07 50.1596 2047.07 71.8489C2047.07 93.5382 2031.66 108.287 2006.49 108.287H1839.2C1806.22 108.287 1782.57 127.807 1782.57 164.896V180.295C1782.57 217.384 1806.44 236.905 1839.2 236.905H1968.74C1993.91 236.905 2009.31 251.653 2009.31 273.343C2009.31 295.032 1993.91 309.781 1968.74 309.781H1844.19C1811.21 309.781 1782.57 330.169 1782.57 371.378V390.899C1782.57 432.108 1811.21 452.496 1844.19 452.496H2006.71C2031.88 452.496 2047.29 467.245 2047.29 488.934C2047.29 510.623 2031.88 525.372 2006.71 525.372H1742C1716.61 525.372 1701.21 510.623 1701.21 488.934ZM2095.24 280.5C2095.24 129.326 2208.72 25 2341.73 25C2474.73 25 2588.21 129.326 2588.21 280.5C2588.21 431.674 2474.73 536 2341.73 536C2208.72 536 2095.24 431.674 2095.24 280.5ZM2187.67 280.5C2187.67 386.778 2250.6 454.665 2341.73 454.665C2432.64 454.665 2495.78 386.778 2495.78 280.5C2495.78 173.355 2432.86 106.335 2341.73 106.335C2250.81 106.118 2187.67 173.355 2187.67 280.5ZM2685.42 490.452C2685.42 518.432 2701.48 536 2726 536C2750.51 536 2766.57 518.432 2766.57 490.452V276.379C2766.57 250.569 2781.98 237.989 2798.03 237.989C2810.62 237.989 2821.03 244.93 2828.84 257.509L2963.15 482.211C2981.38 513.009 2998.09 536 3032.37 536C3065.35 536 3089 512.142 3089 473.752V70.5475C3089 42.5683 3072.94 25 3048.42 25C3023.91 25 3007.85 42.5683 3007.85 70.5475V284.621C3007.85 310.431 2992.44 323.011 2976.39 323.011C2963.8 323.011 2953.17 316.07 2945.58 303.491L2811.27 78.7895C2793.04 47.9907 2776.33 25 2742.05 25C2709.07 25 2685.42 48.8583 2685.42 87.2483V490.452Z" fill="black"/>
</svg>
